icons/arrow-switch-24.svg

<svg width="24" height="24" viewBox="0 0 24 24" fill="none" xmlns="http://www.w3.org/2000/svg">
<path d="M7.71967 21.7803C8.01256 22.0732 8.48744 22.0732 8.78033 21.7803C9.07322 21.4874 9.07322 21.0126 8.78033 20.7197L5.56066 17.5H20.25C20.6642 17.5 21 17.1642 21 16.75C21 16.3358 20.6642 16 20.25 16H5.56066L8.78033 12.7803C9.07322 12.4874 9.07322 12.0126 8.78033 11.7197C8.48744 11.4268 8.01256 11.4268 7.71967 11.7197L3.21967 16.2197C2.92678 16.5126 2.92678 16.9874 3.21967 17.2803L7.71967 21.7803Z" fill="black"/>
<path d="M16.2803 12.2803C15.9874 12.5732 15.5126 12.5732 15.2197 12.2803C14.9268 11.9874 14.9268 11.5126 15.2197 11.2197L18.4393 8H3.75C3.33579 8 3 7.66421 3 7.25C3 6.83579 3.33579 6.5 3.75 6.5H18.4393L15.2197 3.28033C14.9268 2.98744 14.9268 2.51256 15.2197 2.21967C15.5126 1.92678 15.9874 1.92678 16.2803 2.21967L20.7803 6.71967C21.0732 7.01256 21.0732 7.48744 20.7803 7.78033L16.2803 12.2803Z" fill="black"/>
</svg>

<svg xmlns="http://www.w3.org/2000/svg" width="24" height="24" viewBox="0 0 24 24"><path d="M7.72 21.78a.75.75 0 001.06-1.06L5.56 17.5h14.69a.75.75 0 000-1.5H5.56l3.22-3.22a.75.75 0 10-1.06-1.06l-4.5 4.5a.75.75 0 000 1.06l4.5 4.5zm8.56-9.5a.75.75 0 11-1.06-1.06L18.44 8H3.75a.75.75 0 010-1.5h14.69l-3.22-3.22a.75.75 0 011.06-1.06l4.5 4.5a.75.75 0 010 1.06l-4.5 4.5z"/></svg>
